dist/svg/flag-more-o.svg

<!-- Generated by Trend Micro Style Portal -->
<svg version="1.1" xmlns="http://www.w3.org/2000/svg" width="16" height="16" viewBox="0 0 16 16">
  <title>flag-more-o</title>
  <path fill="rgb(34,34,34)" d="M2.734 1.013c1.334 0.091 2.548 0.538 3.568 1.246l-0.023-0.015c1.677 1.254 3.737 2.087 5.976 2.305l0.049 0.004h0.658c-0.709 2.030-2.734 3.347-5.873 3.347l-4.456-0.405h-0.466c-0.004-0-0.010-0-0.015-0-0.409 0-0.801 0.076-1.162 0.215l0.022-0.007v-6.385c0.492-0.192 1.062-0.304 1.658-0.304 0.006 0 0.012 0 0.018 0h0.045zM2.734 0h-0.061c-0.009-0-0.019-0-0.029-0-0.671 0-1.315 0.111-1.916 0.316l0.042-0.012h-0.77v15.696h1.013v-7.089c0.351-0.303 0.808-0.492 1.308-0.506l0.003-0h0.309c1.316 0.101 3.139 0.506 4.456 0.506 4.354 0 7.089-2.329 7.089-6.076-0.44 0.378-1.016 0.608-1.645 0.608-0 0-0 0-0 0h-0.177c-2.43 0-5.57-2.127-5.57-2.127-1.137-0.782-2.533-1.267-4.038-1.316l-0.012-0zM12.152 11.949h2.025v2.025h-2.025zM9.114 13.975h2.025v-2.025h-2.025zM6.076 13.975h2.025v-2.025h-2.025z"></path>
</svg>

<svg width="16" height="16" viewBox="0 0 16 16" fill="rgb(34, 34, 34)" xmlns="http://www.w3.org/2000/svg"><title>flag-more-o</title><path d="M2.734 1.013C4.068 1.104 5.282 1.551 6.302 2.259L6.279 2.244C7.956 3.498 10.016 4.331 12.255 4.549L12.304 4.553H12.962C12.253 6.583 10.228 7.9 7.089 7.9L2.633 7.495H2.167C2.163 7.495 2.157 7.495 2.152 7.495C1.743 7.495 1.351 7.571 0.99 7.71L1.012 7.703V1.318C1.504 1.126 2.074 1.014 2.67 1.014C2.676 1.014 2.682 1.014 2.688 1.014H2.733L2.734 1.013ZM2.734 0H2.673C2.664 0 2.654 0 2.644 0C1.973 0 1.329 0.111 0.728 0.316L0.77 0.304H0V16H1.013V8.911C1.364 8.608 1.821 8.419 2.321 8.405H2.324H2.633C3.949 8.506 5.772 8.911 7.089 8.911C11.443 8.911 14.178 6.582 14.178 2.835C13.738 3.213 13.162 3.443 12.533 3.443H12.356C9.926 3.443 6.786 1.316 6.786 1.316C5.649 0.534 4.253 0.049 2.748 0H2.736L2.734 0ZM12.152 11.949H14.177V13.974H12.152V11.949ZM9.114 13.975H11.139V11.95H9.114V13.975ZM6.076 13.975H8.101V11.95H6.076V13.975Z" fill="rgb(34, 34, 34)" fill-opacity="1.00"/></svg>
